X: 1
T: Nine Pound Hammer
C: trad.
%O: printed copy from/by Matt Flinner
%D:
R: reel
S: Fiddle Hell Online 2022-4-7 handout for Matt Flinner mandolin workshop
Z: 2022 John Chambers <jc:trillian.mit.edu>
N: The handout also contains mandolin tablature; not transcribed here.
N: One _B transcribed as ^A.
M: C|
L: 1/8
K: G
%%continueall
% - - - - - - - - - -
[GD][GD] [G2D2] E2 ||\
"G"GGGA G2GG | G2_BA BAG2 | "C"[G2E2][GE][GE] [GE][GE][GE][GE] | [G2E2] _BA BAGE |
"G"[G2D2][GD][GD] [GD][GD][GD][GD] | "D"[G2D2]_BA GEDE | "G"G4 GBcd | g2[gd][gd] [gd][ge] [g2d2] ||
[dB][dB][dB][dB] [dB][dB][dB][dB] | [d2B2]GA _BAG2 |  "C"[G2E2][GE][GE] [GE][GE][GE][GE] | [G2E2]G2 B2c2 |
[gd][gd][gd][gd] [g2d2][gd][gd] | "D"=fgdc BG^AB | "G"G2GG GBde | g8 |]
% - - - - - - - - - -
